X:971
T:Garryowen
B:O'Neill's 971
Z:Transcribed by Dan G. Petersen, dangp@post6.tele.dk
M:6/8
L:1/8
K:G
(g/f/)|edc BAG|B>cB Bgf|edc BAG|ABA Agf|
edc BAG|B>cB B2(B/c/)|def gdB|A>BA A2:|
(B/c/)|d2B d2B|deB dgf|e2c e2c|efd e2f|
g2a b2a|gfe edB|def gdB|A>BA A2:|


